package/converter/svg/thin/delete-right.svg

<svg xmlns="http://www.w3.org/2000/svg" viewBox="0 0 576 512"><!-- Font Awesome Pro 6.0.0-alpha2 by @fontawesome - https://fontawesome.com License - https://fontawesome.com/license (Commercial License) --><path d="M0 128V384C0 419.375 28.625 448 64 448H370.75C387.75 448 404 441.25 416 429.25L566.625 278.625C579.125 266.125 579.125 245.875 566.625 233.375L416 82.75C404 70.75 387.75 64 370.75 64H64C28.625 64 0 92.625 0 128ZM16 128C16 101.533 37.533 80 64 80H370.75C383.564 80 395.617 84.994 404.686 94.062L555.311 244.687C558.334 247.713 560 251.729 560 256C560 260.27 558.334 264.287 555.311 267.311L404.686 417.936C395.617 427.006 383.564 432 370.75 432H64C37.533 432 16 410.467 16 384V128ZM146.344 189.656L212.688 256L146.344 322.344C143.219 325.469 143.219 330.531 146.344 333.656C149.471 336.783 154.529 336.783 157.656 333.656L224 267.312L290.344 333.656C293.471 336.783 298.529 336.783 301.656 333.656C304.781 330.531 304.781 325.469 301.656 322.344L235.312 256L301.656 189.656C304.781 186.531 304.781 181.469 301.656 178.344S293.469 175.219 290.344 178.344L224 244.688L157.656 178.344C154.531 175.219 149.469 175.219 146.344 178.344S143.219 186.531 146.344 189.656Z"/></svg>

<svg xmlns="http://www.w3.org/2000/svg" viewBox="0 0 576 512"><!--! Font Awesome Pro 6.6.0 by @fontawesome - https://fontawesome.com License - https://fontawesome.com/license (Commercial License) Copyright 2024 Fonticons, Inc. --><path d="M16 128c0-26.5 21.5-48 48-48l306.7 0c12.7 0 24.9 5.1 33.9 14.1L555.3 244.7c3 3 4.7 7.1 4.7 11.3s-1.7 8.3-4.7 11.3L404.7 417.9c-9 9-21.2 14.1-33.9 14.1L64 432c-26.5 0-48-21.5-48-48l0-256zM566.6 233.4L416 82.7C404 70.7 387.7 64 370.7 64L64 64C28.7 64 0 92.7 0 128L0 384c0 35.3 28.7 64 64 64l306.7 0c17 0 33.3-6.7 45.3-18.7L566.6 278.6c6-6 9.4-14.1 9.4-22.6s-3.4-16.6-9.4-22.6zm-420.3-55c-3.1 3.1-3.1 8.2 0 11.3L212.7 256l-66.3 66.3c-3.1 3.1-3.1 8.2 0 11.3s8.2 3.1 11.3 0L224 267.3l66.3 66.3c3.1 3.1 8.2 3.1 11.3 0s3.1-8.2 0-11.3L235.3 256l66.3-66.3c3.1-3.1 3.1-8.2 0-11.3s-8.2-3.1-11.3 0L224 244.7l-66.3-66.3c-3.1-3.1-8.2-3.1-11.3 0z"/></svg>
